lg/flickr.svg

<svg viewBox="0 0 512 160" version="1.1" xmlns="http://www.w3.org/2000/svg" preserveAspectRatio="xMidYMid" height="1em" width="1em">
  <g>
    <path d="M510.160259,79.5648112 C506.056836,78.3129872 501.949413,78.3129872 497.63802,78.3129872 C480.384446,78.3129872 470.721805,90.9392117 470.721805,112.024247 L470.721805,157.485854 L433.782999,157.485854 L433.782999,49.8089956 L467.458264,49.8089956 L467.458264,69.6502054 L467.850209,69.6502054 C474.229312,55.9961255 483.472012,47.317346 499.48576,47.317346 C503.793154,47.317346 508.320517,47.9292599 512,48.56917 L510.160259,79.5648112" fill="#FF0082"/>
    <path d="M311.316221,2.45565467 L348.283023,2.45565467 L348.283023,95.0666313 L348.682966,95.0666313 L379.490634,49.8089956 L419.936946,49.8089956 L382.778172,99.2220469 L423.012514,157.493852 L378.258807,157.493852 L348.682966,104.165352 L348.283023,104.165352 L348.283023,157.489853 L311.316221,157.489853 L311.316221,2.45565467 Z M292.418879,80.5966661 C285.639832,76.4772454 278.884782,74.6175069 270.050024,74.6175069 C254.024278,74.6175069 241.70601,85.7879361 241.70601,104.381321 C241.70601,121.514912 256.07199,132.677342 272.097736,132.677342 C280.520552,132.677342 288.935368,130.829602 295.102501,127.522067 L295.918386,155.214173 C286.687685,158.309738 275.589245,159.977503 265.722633,159.977503 C230.407599,159.977503 203.511381,139.292412 203.511381,103.745411 C203.511381,67.9784405 230.411598,47.317346 265.726632,47.317346 C276.821072,47.317346 286.683685,49.2010811 295.102501,53.3285007 L292.418879,80.5966661 L292.418879,80.5966661 Z M154.886219,157.481854 L191.829024,157.481854 L191.829024,49.8049962 L154.886219,49.8049962 L154.886219,157.481854 Z M154.886219,32.2434658 L191.829024,32.2434658 L191.829024,4.94330485 L154.886219,4.94330485 L154.886219,32.2434658 L154.886219,32.2434658 Z M99.7979659,157.485854 L136.768767,157.485854 L136.768767,2.45565467 L99.7979659,2.45565467 L99.7979659,157.485854 L99.7979659,157.485854 Z M21.7569404,75.8293365 L2.84217094e-14,75.8293365 L2.84217094e-14,49.8049962 L22.3808527,49.8049962 L22.3808527,43.2059242 C22.3808527,11.1664297 37.3707447,0 66.9345873,0 C74.9454608,0 81.1085941,1.24382509 85.8279304,2.05971035 L83.5602493,27.6961052 C80.4886813,26.6602509 77.4091143,26.0243403 71.8498961,26.0243403 C62.4112234,26.0243403 58.7317408,32.6434095 58.7317408,43.2019247 L58.7317408,49.8049962 L85.0080457,49.8049962 L85.0080457,75.8293365 L58.7317408,75.8293365 L58.7317408,157.485854 L21.7569404,157.485854 L21.7569404,75.8293365 Z" fill="#005FDD"/>
  </g>
</svg>

<svg viewBox="0 0 512 160" xmlns="http://www.w3.org/2000/svg" preserveAspectRatio="xMidYMid" height="1em" width="1em">
  <path d="M510.16 79.565c-4.103-1.252-8.21-1.252-12.522-1.252-17.254 0-26.916 12.626-26.916 33.711v45.462h-36.939V49.809h33.675V69.65h.392c6.38-13.654 15.622-22.333 31.636-22.333 4.307 0 8.835.612 12.514 1.252l-1.84 30.996" fill="#FF0082"/>
  <path d="M311.316 2.456h36.967v92.61h.4l30.808-45.257h40.446l-37.159 49.413 40.235 58.272h-44.754l-29.576-53.329h-.4v53.325h-36.967V2.456Zm-18.897 78.14c-6.78-4.119-13.534-5.978-22.369-5.978-16.026 0-28.344 11.17-28.344 29.763 0 17.134 14.366 28.296 30.392 28.296 8.423 0 16.837-1.847 23.005-5.155l.815 27.692c-9.23 3.096-20.329 4.764-30.195 4.764-35.315 0-62.212-20.686-62.212-56.233 0-35.767 26.9-56.428 62.216-56.428 11.094 0 20.957 1.884 29.376 6.012l-2.684 27.268Zm-137.533 76.886h36.943V49.805h-36.943v107.677Zm0-125.239h36.943v-27.3h-36.943v27.3ZM99.798 157.486h36.97V2.456h-36.97v155.03ZM21.757 75.829H0V49.805h22.38v-6.6C22.38 11.167 37.37 0 66.936 0c8.01 0 14.174 1.244 18.893 2.06L83.56 27.696c-3.071-1.036-6.15-1.672-11.71-1.672-9.439 0-13.118 6.62-13.118 17.178v6.603h26.276v26.024H58.732v81.657H21.757V75.829Z" fill="#005FDD"/>
</svg>
